openmetadata-ui/src/main/resources/ui/src/assets/svg/ic-reports.svg

<svg width="20" height="20" viewBox="0 0 20 20" fill="none" xmlns="http://www.w3.org/2000/svg">
<g clip-path="url(#clip0)">
<path d="M17.0312 20C18.0005 20 18.7891 19.2114 18.7891 18.2422V3.8588L14.9303 0H3.55469V5.89844H1.21094V18.2422C1.21094 19.2114 1.99951 20 2.96875 20H17.0312ZM15.2734 2.00058L16.7885 3.51562H15.2734V2.00058ZM4.72656 1.17188H14.1016V4.6875H17.6172V18.2422C17.6172 18.5652 17.3543 18.8281 17.0312 18.8281H4.62585C4.69086 18.6447 4.72656 18.4476 4.72656 18.2422C4.72656 16.7676 4.72656 1.69281 4.72656 1.17188ZM2.38281 18.2422V7.07031H3.55469V18.2422C3.55469 18.5652 3.29178 18.8281 2.96875 18.8281C2.64572 18.8281 2.38281 18.5652 2.38281 18.2422Z" fill="#76746F"/>
<path d="M12.9297 2.34375H5.89844V8.28125H12.9297V2.34375ZM11.7578 7.10938H7.07031V3.51562H11.7578V7.10938Z" fill="#76746F"/>
<path d="M11.7578 15.3125H16.4453V9.45312H11.7578V15.3125ZM12.9297 10.625H15.2734V14.1406H12.9297V10.625Z" fill="#76746F"/>
<path d="M5.89844 9.45312H10.5859V10.625H5.89844V9.45312Z" fill="#76746F"/>
<path d="M5.89844 11.7969H10.5859V12.9688H5.89844V11.7969Z" fill="#76746F"/>
<path d="M5.89844 14.1406H10.5859V15.3125H5.89844V14.1406Z" fill="#76746F"/>
<path d="M5.89844 16.4844H16.4453V17.6562H5.89844V16.4844Z" fill="#76746F"/>
</g>
<defs>
<clipPath id="clip0">
<rect width="20" height="20" fill="white"/>
</clipPath>
</defs>
</svg>

<svg xmlns="http://www.w3.org/2000/svg" width="20" height="20" fill="none"><g fill="#76746F" clip-path="url(#a)"><path d="M17.031 20a1.76 1.76 0 0 0 1.758-1.758V3.86L14.93 0H3.555v5.898H1.21v12.344C1.21 19.212 2 20 2.969 20H17.03ZM15.273 2l1.515 1.516h-1.515V2ZM4.727 1.173h9.375v3.516h3.515v13.554a.587.587 0 0 1-.586.586H4.626c.065-.183.1-.38.1-.586V1.172Zm-2.344 17.07V7.07h1.172v11.172a.587.587 0 0 1-1.172 0Z"/><path d="M12.93 2.344H5.898V8.28h7.032V2.344Zm-1.172 4.765H7.07V3.516h4.688v3.593ZM11.758 15.313h4.687v-5.86h-4.687v5.86Zm1.172-4.688h2.343v3.516H12.93v-3.516ZM5.898 9.453h4.688v1.172H5.898V9.453ZM5.898 11.797h4.688v1.172H5.898v-1.172ZM5.898 14.14h4.688v1.172H5.898v-1.171ZM5.898 16.484h10.547v1.172H5.898v-1.172Z"/></g><defs><clipPath id="a"><path fill="#fff" d="M0 0h20v20H0z"/></clipPath></defs></svg>
